X:153
T:Maid of Lodie,The. JGi.153
M:6/8
L:1/8
Q:3/8=70
S:Joshua Gibbons MS,1823,Tealby,Lincs.
N:’The music for ‘Maid of Lodi was collected by English
N:popular composer William Shield while on a tour of Italy’
N:-source ‘Fiddler’s Companion’
R:Air
O:Tealby,Lincolnshire
Z:VMP/R.Greig, 2009
K:C
G|c2ce2c|B A zzzf|(eg) c (dg) B|c2zzzf|c c (c/d/)e2c|
B Azzz f|(eg) c (dg) B|c2zzzc|B2Gg2B|d c zzzc|B2Gg2B|
c2zzzG|g2g {g}g/{g}e/ d/c/|BG2Hc’2a|g<e c (dg)B|c2|]

